Delta/apps/scalable/youtube-music-desktop-app.svg

<svg width="192" height="192" viewBox="0 0 192 192" fill="none" xmlns="http://www.w3.org/2000/svg">
<path fill-rule="evenodd" clip-rule="evenodd" d="M96 183C144.049 183 183 144.049 183 96C183 47.9512 144.049 9 96 9C47.9512 9 9 47.9512 9 96C9 144.049 47.9512 183 96 183Z" fill="#FF837D"/>
<path fill-rule="evenodd" clip-rule="evenodd" d="M77.178 80.3933C77.178 72.5381 85.8192 67.7498 92.4796 71.9143L117.554 87.5926C123.791 91.492 123.825 100.563 117.619 104.51L92.5444 120.456C85.887 124.69 77.178 119.908 77.178 112.018L77.178 80.3933Z" fill="white"/>
</svg>

<svg width="192" height="192" version="1.1" viewBox="0 0 192 192" xmlns="http://www.w3.org/2000/svg">
 <path d="m96 183c48.049 0 87-38.951 87-87 0-48.049-38.951-87-87-87-48.049 0-87 38.951-87 87 0 48.049 38.951 87 87 87z" clip-rule="evenodd" fill="#FF837D" fill-rule="evenodd"/>
 <path d="m77.178 80.393c0-7.8552 8.6412-12.644 15.302-8.479l25.074 15.678c6.237 3.8994 6.271 12.97 0.065 16.917l-25.075 15.946c-6.6574 4.234-15.366-0.548-15.366-8.438v-31.625z" clip-rule="evenodd" fill="#fff" fill-rule="evenodd"/>
</svg>
